frontend/src/assets/play-button.svg

<svg width="31" height="31" viewBox="0 0 31 31" fill="none" xmlns="http://www.w3.org/2000/svg">
<path d="M19.982 14.438L13.742 9.90196C13.513 9.73596 13.209 9.71096 12.958 9.83996C12.705 9.96796 12.547 10.228 12.547 10.509V19.578C12.547 19.862 12.705 20.121 12.958 20.249C13.065 20.303 13.182 20.33 13.3 20.33C13.454 20.33 13.61 20.281 13.742 20.184L19.982 15.652C20.179 15.507 20.294 15.283 20.294 15.045C20.295 14.803 20.177 14.58 19.982 14.438Z" fill="white"/>
<path d="M15.026 0.00195312C6.726 0.00195312 0 6.72795 0 15.028C0 23.325 6.726 30.049 15.026 30.049C23.324 30.049 30.051 23.324 30.051 15.028C30.052 6.72795 23.324 0.00195312 15.026 0.00195312ZM15.026 27.542C8.114 27.542 2.51 21.941 2.51 15.028C2.51 8.11795 8.114 2.50995 15.026 2.50995C21.937 2.50995 27.54 8.11695 27.54 15.028C27.541 21.941 21.937 27.542 15.026 27.542Z" fill="white"/>
</svg>

<?xml version="1.0" encoding="iso-8859-1"?>
<!-- Generator: Adobe Illustrator 18.1.1, SVG Export Plug-In . SVG Version: 6.00 Build 0)  -->
<svg version="1.1" id="Capa_1" xmlns="http://www.w3.org/2000/svg" xmlns:xlink="http://www.w3.org/1999/xlink" x="0px" y="0px"
	 viewBox="0 0 30.051 30.051" style="enable-background:new 0 0 30.051 30.051;" xml:space="preserve">
<g>
	<path d="M19.982,14.438l-6.24-4.536c-0.229-0.166-0.533-0.191-0.784-0.062c-0.253,0.128-0.411,0.388-0.411,0.669v9.069
		c0,0.284,0.158,0.543,0.411,0.671c0.107,0.054,0.224,0.081,0.342,0.081c0.154,0,0.31-0.049,0.442-0.146l6.24-4.532
		c0.197-0.145,0.312-0.369,0.312-0.607C20.295,14.803,20.177,14.58,19.982,14.438z"/>
	<path d="M15.026,0.002C6.726,0.002,0,6.728,0,15.028c0,8.297,6.726,15.021,15.026,15.021c8.298,0,15.025-6.725,15.025-15.021
		C30.052,6.728,23.324,0.002,15.026,0.002z M15.026,27.542c-6.912,0-12.516-5.601-12.516-12.514c0-6.91,5.604-12.518,12.516-12.518
		c6.911,0,12.514,5.607,12.514,12.518C27.541,21.941,21.937,27.542,15.026,27.542z"/>
	<g>
	</g>
	<g>
	</g>
	<g>
	</g>
	<g>
	</g>
	<g>
	</g>
	<g>
	</g>
	<g>
	</g>
	<g>
	</g>
	<g>
	</g>
	<g>
	</g>
	<g>
	</g>
	<g>
	</g>
	<g>
	</g>
	<g>
	</g>
	<g>
	</g>
</g>
<g>
</g>
<g>
</g>
<g>
</g>
<g>
</g>
<g>
</g>
<g>
</g>
<g>
</g>
<g>
</g>
<g>
</g>
<g>
</g>
<g>
</g>
<g>
</g>
<g>
</g>
<g>
</g>
<g>
</g>
</svg>
